X: 123
T: REEL: Trip to Cullenstown (Gmaj)
C: C: Phil Murphy; S: Various
C: Set Leaders: Mars, Tania, Anton
Z: [Unedited]; Kenny at The Session
N: https://thesession.org/members/26966/sets/94276
R: Reel
M: 4/4
L: 1/8
Q: 1/2=100
K: Gmaj
|:d2 de dBGA|B2 BG AGEG|d2 de dBGA|BAAG A4|
BABd e2 dB|dedB AGEG|B2 BG AGEG|1 DGGF GABc:|2 DGGF G3 A||
|:Bd d2 ce e2|d2 de dBGA|Bd d2 ed d2|gedB A4|
BABd e2 dB|dedB AGEG|B2 BG AGEG|DGGF G4:||

